images/icons/icon-share.svg

<svg fill="none" height="16" viewBox="0 0 14 16" width="14" xmlns="http://www.w3.org/2000/svg"><path d="m4.72667 9.03542 4.55333 2.72918m-.00667-7.52918-4.54666 2.72915m8.27333-3.76457c0 1.13612-.8954 2.05714-2 2.05714-1.10457 0-2-.92102-2-2.05714 0-1.13613.89543-2.05715 2-2.05715 1.1046 0 2 .92102 2 2.05715zm-8 4.8c0 1.13612-.89543 2.0571-2 2.0571s-2-.92098-2-2.0571c0-1.13613.89543-2.05715 2-2.05715s2 .92102 2 2.05715zm8 4.8c0 1.1361-.8954 2.0571-2 2.0571-1.10457 0-2-.921-2-2.0571s.89543-2.0571 2-2.0571c1.1046 0 2 .921 2 2.0571z" stroke="#97a1d7" stroke-linecap="round" stroke-linejoin="round"/></svg>

<svg width="14" height="16" viewBox="0 0 14 16" fill="none" xmlns="http://www.w3.org/2000/svg">
<path d="M4.72667 9.03542L9.28 11.7646M9.27333 4.23542L4.72667 6.96457M13 3.2C13 4.33612 12.1046 5.25714 11 5.25714C9.89543 5.25714 9 4.33612 9 3.2C9 2.06387 9.89543 1.14285 11 1.14285C12.1046 1.14285 13 2.06387 13 3.2ZM5 8C5 9.13612 4.10457 10.0571 3 10.0571C1.89543 10.0571 1 9.13612 1 8C1 6.86387 1.89543 5.94285 3 5.94285C4.10457 5.94285 5 6.86387 5 8ZM13 12.8C13 13.9361 12.1046 14.8571 11 14.8571C9.89543 14.8571 9 13.9361 9 12.8C9 11.6639 9.89543 10.7429 11 10.7429C12.1046 10.7429 13 11.6639 13 12.8Z" stroke="#97A1D7" stroke-linecap="round" stroke-linejoin="round"/>
</svg>
